fs/notebook_question_mark_20_filled.svg

<svg viewBox="0 0 20 20" fill="none" xmlns="http://www.w3.org/2000/svg" height="1em" width="1em">
  <path d="M5 2C3.89543 2 3 2.89543 3 4V9.59971C3.75007 9.21628 4.59978 9 5.5 9C8.53757 9 11 11.4624 11 14.5C11 15.8296 10.5282 17.0491 9.74284 18H13C14.1046 18 15 17.1046 15 16V4C15 2.89543 14.1046 2 13 2H5ZM5 5.5C5 5.22386 5.22386 5 5.5 5H12.5C12.7761 5 13 5.22386 13 5.5V6.5C13 6.77614 12.7761 7 12.5 7H5.5C5.22386 7 5 6.77614 5 6.5V5.5ZM16 6H16.5C16.7761 6 17 6.22386 17 6.5V8C17 8.27614 16.7761 8.5 16.5 8.5H16V6ZM16.5 9.5H16V12H16.5C16.7761 12 17 11.7761 17 11.5V10C17 9.72386 16.7761 9.5 16.5 9.5ZM16 13H16.5C16.7761 13 17 13.2239 17 13.5V15C17 15.2761 16.7761 15.5 16.5 15.5H16V13ZM10 14.5C10 16.9853 7.98528 19 5.5 19C3.01472 19 1 16.9853 1 14.5C1 12.0147 3.01472 10 5.5 10C7.98528 10 10 12.0147 10 14.5ZM5.49993 16.3804C5.15502 16.3804 4.87542 16.66 4.87542 17.0049C4.87542 17.3498 5.15502 17.6294 5.49993 17.6294C5.84484 17.6294 6.12444 17.3498 6.12444 17.0049C6.12444 16.66 5.84484 16.3804 5.49993 16.3804ZM5.49997 11.5034C4.45202 11.5034 3.63568 12.3208 3.64659 13.4577C3.64924 13.7339 3.87524 13.9556 4.15137 13.9529C4.4275 13.9503 4.6492 13.7243 4.64655 13.4481C4.64099 12.8691 5.0062 12.5034 5.49997 12.5034C5.97235 12.5034 6.35337 12.8953 6.35337 13.4529C6.35337 13.6547 6.28218 13.7679 5.99369 13.9968L5.7157 14.2118C5.20993 14.6161 4.99995 14.9294 4.99993 15.5003C4.99992 15.7764 5.22376 16.0003 5.49991 16.0003C5.74537 16.0003 5.94952 15.8234 5.99187 15.5902L6.0034 15.4341C6.02024 15.2863 6.10295 15.1804 6.34869 14.9858L6.62574 14.7715C7.13905 14.3607 7.35337 14.0387 7.35337 13.4529C7.35337 12.3492 6.53102 11.5034 5.49997 11.5034Z" fill="#212121"/>
</svg>

<svg viewBox="0 0 20 20" fill="none" xmlns="http://www.w3.org/2000/svg" height="1em" width="1em">
  <path d="M5 2a2 2 0 0 0-2 2v5.6A5.5 5.5 0 0 1 9.743 18H13a2 2 0 0 0 2-2V4a2 2 0 0 0-2-2H5Zm0 3.5a.5.5 0 0 1 .5-.5h7a.5.5 0 0 1 .5.5v1a.5.5 0 0 1-.5.5h-7a.5.5 0 0 1-.5-.5v-1ZM16 6h.5a.5.5 0 0 1 .5.5V8a.5.5 0 0 1-.5.5H16V6Zm.5 3.5H16V12h.5a.5.5 0 0 0 .5-.5V10a.5.5 0 0 0-.5-.5ZM16 13h.5a.5.5 0 0 1 .5.5V15a.5.5 0 0 1-.5.5H16V13Zm-6 1.5a4.5 4.5 0 1 1-9 0 4.5 4.5 0 0 1 9 0Zm-4.5 1.88a.625.625 0 1 0 0 1.25.625.625 0 0 0 0-1.25Zm0-4.877c-1.048 0-1.864.818-1.853 1.955a.5.5 0 1 0 1-.01c-.006-.579.36-.945.853-.945.472 0 .853.392.853.95 0 .202-.07.315-.36.544l-.277.215C5.21 14.616 5 14.929 5 15.5a.5.5 0 0 0 .992.09l.011-.156c.017-.148.1-.254.346-.448l.277-.215c.513-.41.727-.732.727-1.318 0-1.104-.822-1.95-1.853-1.95Z" fill="#212121"/>
</svg>
